assets/recombine.svg

<svg width="1360" height="204" viewBox="0 0 1360 204" fill="none" xmlns="http://www.w3.org/2000/svg">
<path d="M0 200.44V0H58.35C75.1909 0 89.304 1.66143 100.689 4.98429C112.075 8.06981 120.732 13.6475 126.662 21.7173C132.592 29.5497 135.557 40.8237 135.557 55.5393C135.557 63.8464 133.897 71.9162 130.576 79.7487C127.255 87.3438 122.037 93.6335 114.921 98.6178C107.805 103.365 98.5547 105.738 87.1693 105.738C97.1315 105.738 104.84 107.637 110.296 111.435C115.989 114.995 120.021 119.742 122.393 125.675C124.765 131.609 126.188 138.017 126.662 144.901C127.137 151.784 127.255 158.548 127.018 165.194C127.018 171.839 127.255 177.773 127.73 182.995C128.204 187.979 129.627 191.658 131.999 194.031C134.371 196.168 138.403 196.286 144.096 194.387V203.288C144.096 203.288 142.792 203.407 140.182 203.644C137.81 204.119 134.846 203.881 131.288 202.932C127.967 202.22 125.002 200.084 122.393 196.524C120.021 192.963 118.835 187.267 118.835 179.435C118.835 163.77 118.242 151.309 117.056 142.052C115.87 132.796 113.379 125.913 109.584 121.403C105.789 116.894 99.8592 113.927 91.7946 112.503C83.9671 110.841 73.412 110.129 60.129 110.366C46.8461 110.366 30.0052 110.366 9.60641 110.366V200.44H0ZM9.60641 101.466H67.2449C80.765 101.466 91.9132 100.042 100.689 97.1937C109.466 94.1082 115.989 89.2426 120.258 82.5968C124.528 75.9511 126.662 66.9319 126.662 55.5393C126.662 42.0105 123.935 32.0419 118.479 25.6335C113.261 18.9878 105.552 14.5969 95.3525 12.4607C85.3903 10.3246 73.0562 9.25655 58.35 9.25655H9.60641V101.466Z" fill="#DDDDDD"/>
<path d="M233.271 204C218.327 204 205.875 200.321 195.912 192.963C185.95 185.606 178.479 176.112 173.497 164.482C168.754 152.852 166.5 140.866 166.737 128.524C166.975 116.419 169.584 104.908 174.565 93.9895C179.546 82.8342 186.899 73.815 196.624 66.9319C206.586 60.0489 218.802 56.6073 233.271 56.6073C244.893 56.6073 255.211 59.2181 264.225 64.4398C273.238 69.6614 280.473 77.0192 285.928 86.5131C291.621 96.007 294.941 107.162 295.89 119.979C296.127 121.403 296.246 122.946 296.246 124.607C296.246 126.031 296.246 127.455 296.246 128.88H176.344C176.344 148.817 181.206 164.838 190.931 176.942C200.894 189.047 215.007 195.099 233.271 195.099C246.554 195.099 258.058 191.658 267.783 184.775C277.745 177.654 283.912 168.042 286.284 155.937H295.89C293.993 165.431 290.079 173.857 284.149 181.215C278.219 188.335 270.866 193.913 262.09 197.948C253.314 201.983 243.707 204 233.271 204ZM177.411 119.979H286.284C286.047 114.52 284.861 108.705 282.726 102.534C280.591 96.1256 277.389 90.192 273.12 84.733C268.85 79.0366 263.395 74.4084 256.753 70.8482C250.112 67.288 242.284 65.5079 233.271 65.5079C225.206 65.5079 217.972 66.9319 211.567 69.7801C205.163 72.3909 199.589 76.1885 194.845 81.1728C190.101 85.9197 186.187 91.6161 183.104 98.2618C180.258 104.908 178.36 112.147 177.411 119.979Z" fill="#DDDDDD"/>
<path d="M388.495 204C374.975 204 363.115 201.152 352.916 195.455C342.953 189.522 335.126 181.215 329.433 170.534C323.741 159.616 320.894 146.799 320.894 132.084C321.369 117.368 324.452 104.314 330.145 92.9215C335.837 81.5288 343.784 72.6283 353.983 66.2199C364.182 59.8115 376.042 56.6073 389.562 56.6073C400.473 56.6073 410.198 58.6248 418.737 62.6597C427.513 66.6946 434.748 72.2723 440.441 79.3927C446.371 86.5131 450.403 94.9389 452.538 104.67H443.287C440.678 92.8028 434.511 83.4276 424.786 76.5445C415.061 69.6614 403.32 66.2199 389.562 66.2199C377.94 66.2199 367.74 69.0681 358.964 74.7644C350.188 80.2234 343.309 87.9372 338.328 97.9058C333.347 107.874 330.738 119.386 330.501 132.44C330.501 151.19 335.719 166.262 346.155 177.654C356.829 188.81 370.942 194.387 388.495 194.387C402.489 194.387 414.468 190.946 424.43 184.063C434.392 177.18 440.678 167.805 443.287 155.937H452.538C450.403 165.431 446.252 173.857 440.085 181.215C434.155 188.335 426.802 193.913 418.026 197.948C409.249 201.983 399.406 204 388.495 204Z" fill="#DDDDDD"/>
<path d="M542.338 204C527.869 204 515.772 200.914 506.047 194.743C496.322 188.335 488.969 179.672 483.987 168.754C479.244 157.599 476.872 144.901 476.872 130.66C476.872 116.182 479.244 103.365 483.987 92.2094C488.969 81.0541 496.322 72.3909 506.047 66.2199C515.772 59.8115 527.869 56.6073 542.338 56.6073C563.448 56.6073 579.577 63.3717 590.725 76.9005C601.874 90.4293 607.448 108.349 607.448 130.66C607.448 144.426 605.076 156.887 600.332 168.042C595.825 179.197 588.709 187.979 578.984 194.387C569.496 200.796 557.281 204 542.338 204ZM542.338 194.743C556.569 194.743 567.599 191.539 575.426 185.131C583.491 178.723 589.184 170.653 592.504 160.921C595.825 150.953 597.485 140.866 597.485 130.66C597.485 120.216 595.825 110.01 592.504 100.042C589.184 90.0733 583.491 81.8848 575.426 75.4764C567.599 69.0681 556.569 65.8639 542.338 65.8639C528.343 65.8639 517.195 69.0681 508.893 75.4764C500.828 81.8848 495.136 90.0733 491.815 100.042C488.494 110.01 486.834 120.216 486.834 130.66C486.834 140.866 488.494 150.953 491.815 160.921C495.136 170.653 500.828 178.723 508.893 185.131C517.195 191.539 528.343 194.743 542.338 194.743Z" fill="#DDDDDD"/>
<path d="M637.408 200.44V56.6073H644.879L646.658 97.1937H647.37C648.081 94.5829 649.386 91.1414 651.284 86.8691C653.181 82.3595 655.909 77.8499 659.467 73.3403C663.262 68.5934 668.125 64.6771 674.054 61.5916C679.984 58.2688 687.575 56.6073 696.825 56.6073C706.787 56.6073 714.852 58.6248 721.019 62.6597C727.186 66.6946 731.811 71.7976 734.895 77.9686C738.216 84.1396 740.588 90.548 742.011 97.1937H742.722C743.434 94.5829 744.857 91.1414 746.992 86.8691C749.127 82.3595 752.092 77.8499 755.887 73.3403C759.919 68.5934 765.019 64.6771 771.186 61.5916C777.59 58.2688 785.418 56.6073 794.668 56.6073C804.156 56.6073 811.865 58.5061 817.795 62.3037C823.962 65.8639 828.706 70.6108 832.026 76.5445C835.347 82.2408 837.719 88.4119 839.142 95.0576C840.565 101.466 841.396 107.756 841.633 113.927C842.107 119.86 842.344 124.726 842.344 128.524V200.44H833.094V128.524C833.094 124.251 832.857 118.674 832.382 111.791C831.908 104.907 830.485 98.0244 828.113 91.1414C825.741 84.0209 821.827 78.0873 816.372 73.3403C810.916 68.356 803.207 65.8639 793.245 65.8639C782.571 65.8639 773.558 68.9494 766.205 75.1204C759.089 81.0541 753.633 89.1239 749.838 99.3298C746.28 109.298 744.501 120.454 744.501 132.796V200.44H735.251V128.524C735.251 124.251 735.014 118.674 734.539 111.791C734.065 104.907 732.642 98.0244 730.27 91.1414C727.898 84.0209 723.984 78.0873 718.529 73.3403C713.073 68.356 705.364 65.8639 695.402 65.8639C684.728 65.8639 675.715 68.9494 668.362 75.1204C661.246 81.0541 655.79 89.1239 651.995 99.3298C648.437 109.298 646.658 120.454 646.658 132.796V200.44H637.408Z" fill="#DDDDDD"/>
<path d="M943.018 204C933.293 204 924.991 202.22 918.113 198.66C911.234 195.099 905.541 190.827 901.035 185.843C896.528 180.859 893.089 176.112 890.717 171.602C888.345 167.092 886.803 164.007 886.091 162.346H885.38L883.601 200.44H875.773V0H885.736V97.9058H886.447C887.159 96.007 888.582 92.9215 890.717 88.6492C892.851 84.1396 896.054 79.3927 900.323 74.4084C904.593 69.4241 910.167 65.2705 917.045 61.9476C924.161 58.3874 932.7 56.6073 942.662 56.6073C956.42 56.6073 968.161 59.9302 977.886 66.5759C987.848 73.2216 995.438 82.1222 1000.66 93.2775C1006.11 104.433 1008.84 116.656 1008.84 129.948C1008.84 143.714 1006.11 156.175 1000.66 167.33C995.438 178.485 987.848 187.386 977.886 194.031C968.161 200.677 956.538 204 943.018 204ZM944.086 194.031C956.657 194.031 966.975 190.946 975.04 184.775C983.341 178.604 989.39 170.653 993.185 160.921C997.217 150.953 999.234 140.628 999.234 129.948C999.234 119.03 996.98 108.824 992.474 99.3298C988.204 89.5986 981.681 81.7661 972.905 75.8325C964.366 69.6614 953.811 66.5759 941.239 66.5759C931.514 66.5759 922.501 69.0681 914.199 74.0524C905.897 78.7993 899.137 85.9197 893.919 95.4136C888.938 104.907 886.447 116.419 886.447 129.948C886.447 143.714 889.175 155.462 894.63 165.194C900.086 174.688 907.202 181.927 915.978 186.911C924.754 191.658 934.123 194.031 944.086 194.031Z" fill="#DDDDDD"/>
<path d="M1039.74 200.44V56.6073H1049.35V200.44H1039.74ZM1044.72 32.0419C1040.93 32.0419 1038.32 31.0925 1036.9 29.1937C1035.47 27.0576 1034.76 24.6841 1034.76 22.0733C1034.76 19.4625 1035.47 17.2077 1036.9 15.3089C1038.32 13.4101 1040.93 12.4607 1044.72 12.4607C1048.76 12.4607 1051.36 13.4101 1052.55 15.3089C1053.74 17.2077 1054.33 19.4625 1054.33 22.0733C1054.33 24.6841 1053.74 27.0576 1052.55 29.1937C1051.36 31.0925 1048.76 32.0419 1044.72 32.0419Z" fill="#DDDDDD"/>
<path d="M1082.98 200.44V56.6073H1090.45L1092.23 97.1937H1092.94C1093.65 95.2949 1094.96 92.2094 1096.85 87.9372C1098.99 83.4276 1102.07 78.7993 1106.1 74.0524C1110.37 69.3054 1115.83 65.2705 1122.47 61.9476C1129.35 58.3874 1137.77 56.6073 1147.73 56.6073C1157.46 56.6073 1165.64 57.9127 1172.28 60.5236C1178.92 63.1344 1184.38 66.8133 1188.65 71.5602C1192.92 76.0698 1196.12 81.4101 1198.25 87.5812C1200.63 93.7522 1202.17 100.279 1202.88 107.162C1203.83 114.045 1204.3 121.166 1204.3 128.524V200.44H1195.05V128.524C1195.05 115.469 1193.51 104.314 1190.43 95.0576C1187.58 85.5637 1182.72 78.3246 1175.84 73.3403C1169.2 68.356 1160.07 65.8639 1148.44 65.8639C1136.11 65.8639 1125.79 68.9494 1117.49 75.1204C1109.19 81.0541 1102.9 89.1239 1098.63 99.3298C1094.36 109.298 1092.23 120.454 1092.23 132.796V200.44H1082.98Z" fill="#DDDDDD"/>
<path d="M1297.02 204C1282.08 204 1269.63 200.321 1259.67 192.963C1249.7 185.606 1242.23 176.112 1237.25 164.482C1232.51 152.852 1230.25 140.866 1230.49 128.524C1230.73 116.419 1233.34 104.908 1238.32 93.9895C1243.3 82.8342 1250.65 73.815 1260.38 66.9319C1270.34 60.0489 1282.56 56.6073 1297.02 56.6073C1308.65 56.6073 1318.97 59.2181 1327.98 64.4398C1336.99 69.6614 1344.23 77.0192 1349.68 86.5131C1355.37 96.007 1358.7 107.162 1359.64 119.979C1359.88 121.403 1360 122.946 1360 124.607C1360 126.031 1360 127.455 1360 128.88H1240.1C1240.1 148.817 1244.96 164.838 1254.69 176.942C1264.65 189.047 1278.76 195.099 1297.02 195.099C1310.31 195.099 1321.81 191.658 1331.54 184.775C1341.5 177.654 1347.67 168.042 1350.04 155.937H1359.64C1357.75 165.431 1353.83 173.857 1347.9 181.215C1341.97 188.335 1334.62 193.913 1325.84 197.948C1317.07 201.983 1307.46 204 1297.02 204ZM1241.17 119.979H1350.04C1349.8 114.52 1348.61 108.705 1346.48 102.534C1344.35 96.1256 1341.14 90.192 1336.87 84.733C1332.6 79.0366 1327.15 74.4084 1320.51 70.8482C1313.87 67.288 1306.04 65.5079 1297.02 65.5079C1288.96 65.5079 1281.73 66.9319 1275.32 69.7801C1268.92 72.3909 1263.34 76.1885 1258.6 81.1728C1253.86 85.9197 1249.94 91.6161 1246.86 98.2618C1244.01 104.908 1242.11 112.147 1241.17 119.979Z" fill="#DDDDDD"/>
</svg>

<svg xmlns="http://www.w3.org/2000/svg" width="1360" height="204" fill="none"><path fill="#DDD" d="M0 200.44V0h58.35q25.26 0 42.339 4.984 17.079 4.63 25.973 16.733 8.895 11.75 8.895 33.822 0 12.46-4.981 24.21-4.981 11.393-15.655 18.869-10.674 7.12-27.752 7.12 14.944 0 23.127 5.697 8.54 5.34 12.097 14.24t4.269 19.226q.712 10.324.356 20.293 0 9.968.712 17.801.711 7.476 4.269 11.036 3.558 3.205 12.097.356v8.901l-3.914.356q-3.558.712-8.894-.712-4.981-1.068-8.895-6.408-3.558-5.341-3.558-17.089 0-23.498-1.779-37.383-1.78-13.884-7.472-20.649-5.692-6.764-17.79-8.9-11.74-2.493-31.665-2.137H9.606v90.074zm9.606-98.974h57.639q20.28 0 33.444-4.272 13.166-4.629 19.569-14.597 6.404-9.969 6.404-27.058 0-20.293-8.183-29.905-7.827-9.969-23.126-13.173Q80.409 9.257 58.35 9.257H9.606zM233.271 204q-22.415 0-37.359-11.037-14.943-11.036-22.415-28.481-7.115-17.445-6.76-35.958.357-18.157 7.828-34.534 7.471-16.734 22.059-27.058 14.943-10.325 36.647-10.325 17.433 0 30.954 7.833 13.52 7.833 21.703 22.073 8.539 14.24 9.962 33.466.356 2.136.356 4.628v4.273H176.344q0 29.906 14.587 48.062 14.944 18.157 42.34 18.157 19.924 0 34.512-10.324 14.943-10.681 18.501-28.838h9.606q-2.846 14.241-11.741 25.278-8.895 10.68-22.059 16.733Q248.925 204 233.271 204m-55.86-84.021h108.873q-.356-8.188-3.558-17.445-3.202-9.612-9.606-17.801-6.404-8.544-16.367-13.885-9.962-5.34-23.482-5.34-12.097 0-21.704 4.272-9.606 3.916-16.722 11.393-7.116 7.12-11.741 17.089-4.27 9.969-5.693 21.717M388.495 204q-20.28 0-35.579-8.545-14.944-8.9-23.483-24.921-8.538-16.377-8.539-38.45.712-22.074 9.251-39.163t23.838-26.701 35.579-9.613q16.366 0 29.175 6.053 13.164 6.052 21.704 16.733 8.895 10.68 12.097 25.277h-9.251q-3.913-17.8-18.501-28.126-14.587-10.324-35.224-10.324-17.433 0-30.598 8.544-13.164 8.19-20.636 23.142t-7.827 34.534q0 28.125 15.654 45.214 16.01 16.734 42.34 16.733 20.991 0 35.935-10.324 14.943-10.324 18.857-28.126h9.251q-3.202 14.241-12.453 25.278-8.895 10.68-22.059 16.733Q404.861 204 388.495 204m153.843 0q-21.704 0-36.291-9.257-14.587-9.612-22.06-25.989-7.115-16.732-7.115-38.094 0-21.717 7.115-38.45 7.473-16.735 22.06-25.99 14.588-9.612 36.291-9.613 31.665 0 48.387 20.293 16.723 20.294 16.723 53.76 0 20.65-7.116 37.382-6.76 16.733-21.348 26.345Q564.752 204 542.338 204m0-9.257q21.347 0 33.088-9.612 12.098-9.612 17.078-24.21 4.981-14.952 4.981-30.261 0-15.666-4.981-30.618-4.98-14.953-17.078-24.566-11.741-9.612-33.088-9.612-20.992 0-33.445 9.612-12.097 9.613-17.078 24.566t-4.981 30.618q0 15.309 4.981 30.261 4.981 14.598 17.078 24.21 12.453 9.612 33.445 9.612m95.07 5.697V56.607h7.471l1.779 40.587h.712q1.067-3.917 3.914-10.325 2.846-6.765 8.183-13.529 5.693-7.12 14.587-11.748 8.895-4.985 22.771-4.985 14.943 0 24.194 6.053 9.25 6.052 13.876 15.309 4.982 9.255 7.116 19.225h.711q1.068-3.917 4.27-10.325 3.202-6.765 8.895-13.529 6.048-7.12 15.299-11.748 9.606-4.985 23.482-4.985 14.232 0 23.127 5.697 9.25 5.34 14.231 14.24 4.982 8.545 7.116 18.514 2.135 9.612 2.491 18.869.711 8.9.711 14.597v71.916h-9.25v-71.916q0-6.409-.712-16.733-.711-10.326-4.269-20.65-3.558-10.68-11.741-17.8-8.184-7.477-23.127-7.477-16.01 0-27.04 9.256-10.674 8.901-16.367 24.21-5.337 14.953-5.337 33.466v67.644h-9.25v-71.916q0-6.409-.712-16.733-.711-10.326-4.269-20.65-3.558-10.68-11.741-17.8-8.184-7.477-23.127-7.477-16.01 0-27.04 9.256-10.674 8.901-16.367 24.21-5.337 14.953-5.337 33.466v67.644zm305.61 3.56q-14.588 0-24.905-5.34-10.319-5.341-17.078-12.817-6.76-7.476-10.318-14.241t-4.626-9.256h-.711l-1.779 38.094h-7.828V0h9.963v97.906h.711q1.068-2.849 4.27-9.257 3.202-6.764 9.606-14.24 6.405-7.478 16.722-12.461 10.674-5.34 25.617-5.34 20.637 0 35.224 9.968 14.942 9.969 22.774 26.702c5.45 11.155 8.18 23.378 8.18 36.67 0 13.766-2.73 26.227-8.18 37.382q-7.832 16.733-22.774 26.701Q963.298 204 943.018 204m1.068-9.969q18.857 0 30.954-9.256 12.452-9.256 18.145-23.854 6.048-14.952 6.049-30.973 0-16.377-6.76-30.618-6.405-14.597-19.569-23.498-12.808-9.256-31.666-9.256-14.587 0-27.04 7.476-12.453 7.12-20.28 21.362-7.472 14.24-7.472 34.534 0 20.648 8.183 35.246 8.184 14.241 21.348 21.717 13.164 7.12 28.108 7.12m95.654 6.409V56.607h9.61V200.44zm4.98-168.398c-3.79 0-6.4-.95-7.82-2.848-1.43-2.136-2.14-4.51-2.14-7.12 0-2.612.71-4.866 2.14-6.765 1.42-1.899 4.03-2.848 7.82-2.848 4.04 0 6.64.95 7.83 2.848 1.19 1.899 1.78 4.153 1.78 6.764s-.59 4.985-1.78 7.12c-1.19 1.9-3.79 2.849-7.83 2.849m38.26 168.398V56.607h7.47l1.78 40.587h.71c.71-1.9 2.02-4.985 3.91-9.257 2.14-4.51 5.22-9.138 9.25-13.885 4.27-4.747 9.73-8.782 16.37-12.104q10.32-5.34 25.26-5.34c9.73 0 17.91 1.305 24.55 3.916s12.1 6.29 16.37 11.036q6.405 6.765 9.6 16.021c2.38 6.171 3.92 12.698 4.63 19.581.95 6.883 1.42 14.004 1.42 21.362v71.916h-9.25v-71.916q0-19.582-4.62-33.466c-2.85-9.494-7.71-16.733-14.59-21.718-6.64-4.984-15.77-7.476-27.4-7.476-12.33 0-22.65 3.085-30.95 9.256-8.3 5.934-14.59 14.004-18.86 24.21-4.27 9.968-6.4 21.124-6.4 33.466v67.644zm214.04 3.56q-22.41 0-37.35-11.037c-9.97-7.357-17.44-16.851-22.42-28.481-4.74-11.63-7-23.616-6.76-35.958q.36-18.157 7.83-34.534c4.98-11.156 12.33-20.175 22.06-27.058 9.96-6.883 22.18-10.325 36.64-10.325q17.445 0 30.96 7.833c9.01 5.221 16.25 12.58 21.7 22.073 5.69 9.494 9.02 20.649 9.96 33.466q.36 2.136.36 4.628v4.273h-119.9c0 19.937 4.86 35.958 14.59 48.062q14.94 18.157 42.33 18.157c13.29 0 24.79-3.441 34.52-10.324 9.96-7.121 16.13-16.733 18.5-28.838h9.6c-1.89 9.494-5.81 17.92-11.74 25.278-5.93 7.12-13.28 12.698-22.06 16.733-8.77 4.035-18.38 6.052-28.82 6.052m-55.85-84.021h108.87c-.24-5.459-1.43-11.274-3.56-17.445-2.13-6.408-5.34-12.342-9.61-17.801-4.27-5.696-9.72-10.325-16.36-13.885q-9.96-5.34-23.49-5.34c-8.06 0-15.29 1.424-21.7 4.272-6.4 2.61-11.98 6.409-16.72 11.393-4.74 4.747-8.66 10.443-11.74 17.089-2.85 6.646-4.75 13.885-5.69 21.717"/></svg>
